X:1
T:Castle Nebulous
T:Castle Nebulous
T:Dreadful wardens of the unseen fortress
%%score { 1 2 }
L:1/8
Q:1/4=86
M:3/4
K:C
V:1 treble nm="Piano 1"
V:2 bass nm="Piano 2"
V:1
!f!"^Andante"!ped! [A,CE]/[A,CE]/ [A,CE]2 [A,CE]/[A,CE]/ [A,CE]D/E/ | %1
 [A,DF]/[A,DF]/ [A,DF]2 [A,DF]/[A,DF]/ [B,Ff]/[CA]/[B,E]/[CF]/ | %2
 [D^GB]/[DGB]/ [DGB]2 [DGB]/[DGB]/ [DGBd]C/D/ | [CEAc]/[CEA]/ [CEA]2 [CEA]/[CEA]/ [CEA]E/A/ | %4
 [Ace]/E/D/E/ [Ace]/E/A/E/ [Ace]/E/D/E/ | [Adf]/E/F/E/ [Adf]/"_dim."E/A/F/ [Ae]/f/a/f/ | %6
 [ABdef]/E/D/E/ [Bdf]/E/A/^G/ [DA]/e/a/e/ | [Ed]/[Ec]/[EB]/c/ B/A/E/A/ [Ee]/A/[EB]/[Dc]/ | %8
[M:4/4] [ce]/[Bd]/[ce]/[Ac]/ B/A/a/A/ a/A/a/A/!f! B2 | %9
 [E,A,CE]/B,/ [A,CE]2 [A,CE]/B,/ [A,CE]2 [A,CE][B,E]/C/ | [A,DF] [A,DF]2 [A,D]/C/ [A,D]2 [A,DF]D | %11
 [E,^G,B,E][G,B,E][A,D][G,B,] [G,CE]E,[E,G,B,]G, | [CEG] [CEG]2 [CE]/B,/ [A,CE]2 [A,E]C/B,/ | %13
 [CFGc]3 [G,A,C] [G,A,C]2 [CB]2 | [G,B,DG]D[F,A,F][A,D] [E,B,E]2 [Dd]2 | %15
 [E^Gce]2 [DGBd]2 [EABe]2 [FBf]2 | %16
 [CEAc]/B,/ [CE]2 [CE]/[CE]/"_dim." (15:2:15E,F,G,A,B,CDEFGABcde!mf!"_dim." (22:2:22A,B,CDEFGABcdefgabc'd'e'f'g'a' | %17
!f! e'/c'/b/a/ e'/c'/b/a/ e'/c'/b/a/ e'/c'/b/a/ | f'/c'/b/a/ f'/c'/b/a/ f'/c'/b/a/ f'/c'/b/a/ | %19
 e'/^g/b/a/ d'/c'/b/c'/ b/a/=g/a/ [gf']/f/e/d/ | %20
 [ebe']/a/b/c'/ e'/c'/b/a/ e'/d'/c'/b/ a'/e'/c'/b/ | %21
 [gc'g']2 (9:4:16(1:1:3g'gg'(1:2:5g/g'/g/g'/g/(2:4:8g'/4g/4g'/4g/4g'/4g/4g'/4g/4 [fgf']2 | %22
 [eabe']2 [dabd']2 [cac']2 [dad']2 | %23
 [ee']/b/d'/^g/ c'/e/b/d'/ e/4=g/4b/4c'/4g/4b/4c'/4d'/4 b/4c'/4d'/4e'/4d'/4c'/4b/4g/4 | %24
 [Acea]3/2[Ace][Ace]A/ [Ace]2!mf!"_dim." (25:2:25e''63/64d''63/64c''63/64b'63/64a'63/64g'63/64f'63/64e'63/64d'63/64c'63/64b63/64a63/64g63/64f63/64e63/64d63/64c63/64B63/64A63/64G63/64F63/64E63/64D63/64C63/64B,63/64 || %25
[K:Eb]!f! [G,EG]2 C3/2CC3/2 C2 | [A,CFA]2 C3/2CC3/2 F2 | [G,_CDG]2 [F,CDF]2 [E,F,CE]2 [E,CD]D, | %28
 [G,CE]2 [G,C]3/2[G,C][G,C][G,C]/ F/C/G, | [EAce]6 [Dd]2 | [B,CFB]2 [A,CFA]2 [G,CG]2 [FAcf]2 | %31
 [EG_ce]2 [DFd]2 [CEG=c]2 [DFAd]2 | %32
 [EGce]E/[Ac][EGc]E/ [Gc][EGc] [EGc]/[EGc]/[EGc]/[EGc]/!ped-up! |] %33
V:2
!mf!!ped! [A,,,E,,A,,]2 A,,,2 [A,,,A,,]2 | [B,,,B,,]2 B,,,2 [B,,F,](3B,,/^F,,/B,,,/ | %2
 [E,,,F,,]2 E,,2 [E,,,E,,][^G,,,^G,,] | [A,,,A,,]2 [A,,,A,,]2 [A,,,A,,]B,,/A,,,/ | %4
 [A,,,A,,]/A,,/A,, [A,,,A,,]A,,/A,,/ [A,,,A,,]A,,/A,,/ | %5
 [B,,,B,,]2 [B,,,B,,]2 [B,,,B,,]F,,/D,,/4B,,,/4 | [E,,,E,,]2 E,,2 [E,,,E,,][^G,,,^G,,] | %7
 [A,,,A,,]/A,,/A,, [A,,,A,,]A,,/A,,/ [A,,,A,,]A,,/A,,,/ | %8
[M:4/4] [A,,,A,,]/[A,,,A,,]A,/ A,,/A,A,,/ A,A,,/A,A,,/A, | %9
 A,,A,,[C,E,]3/2E,E,/A,, [C,E,]A,,/A,,,/ | [B,,,B,,]B,,[D,F,]3/2D,D,/B,,/E,,/ [D,F,]A,,/D,,/ | %11
 [E,,,E,,]E,, [F,,B,,D,]E,,/B,,B,,/E,,/B,,,/ [G,,B,,]>E,, | %12
 [A,,,A,,]A,,[C,E,]3/2E,E,/A,,/E,,/ [C,E,]A,, | %13
 [F,,,F,,]F,, [C,F,]F,,/C,F,,/A,,/C,/ F,/C,/A,,/C,,/ | %14
 [F,,,F,,]>F,, [B,,D,]/F,,B,,[B,,D,]/F,,/B,,/ [B,,D,]F,,/D,,/ | %15
 [E,,,E,,]E,,/E,,/ [B,,E,]E,,/[B,,E,]E,/E,,/E,,/ [B,,E,]^G,,/^G,,,/ | %16
 [A,,,A,,][G,,E,]/E,,/ [A,,C,E,]A,,/A,,,A,,/E,,/A,,,/ A,,/E,,/A,,,/E,,/ | %17
 [A,,,A,,][A,,,A,,] [C,E,A,]A,,/[C,E,A,][E,A,]/A,, [C,E,A,]/A,,/B,,/A,,,/ | %18
 [A,,,A,,][A,,,A,,] [C,E,A,]A,,/[C,E,A,][E,A,]/A,, [C,E,A,]/A,,/A,,/A,,,/ | %19
 [E,,,E,,]E,, [B,,E,]E,,/[B,,E,]E,/B,,/E,,/ [B,,E,]/E,,/^G,,/E,,/ | %20
 [A,,,A,,]A,,/A,,/ [E,A,]/A,,/A,,/[C,E,]A,,/E,,/A,,/ [C,E,]/A,,/E,,/A,,,/ | %21
 [F,,,F,,]F,, [C,F,G,]G,,/F,,F,,/G,,/F,,/ [C,F,]/F,,/G,,/C,,/ | %22
 [F,,,F,,][F,,,F,,] [C,F,]/G,,/F,,/F,[C,F,]/F,,/F,,/ [C,F,]/F,,/F,,/F,,,/ | %23
 [E,,,E,,][E,,,E,,] [B,,E,]/E,,/E,,/[B,,E,]E,/B,,/E,,/ [B,,E,]/E,,/^G,,/^G,,,/ | %24
 [A,,,A,,]/A,,/[E,A,]/A,,/ A,,/[E,A,]/A,, [E,A,]/A,,/[E,A,]/A,,/ A,,/A,,/4F,,/4F,,,/A,,/ || %25
[K:Eb] [C,,C,][C,,C,] [E,G,]C,/[E,G,]G,/C,/G,,/ [E,G,]/C,/C,/C,,/ | %26
 [D,,D,]D, [F,A,]D,/[F,A,]D,/[F,A,]/A,,/ [F,A,]/D,/A,,/D,,/ | %27
 [G,,,G,,]G,,/D,,/ [G,,D,]D,,/[G,,_C,][G,,C,]/D,,/G,,/ C,/G,,/D,,/G,,,/ | %28
 [C,,C,]/G,,/C,/G,,/ [C,,C,]/G,,/C,,/[G,,C,]/ C,,/B,,/A,,/G,,/ F,,/E,,/C,,/E,,/ | %29
 [A,,,A,,]/A,,,/A,,/A,,/ [C,E,A,]A,,/[E,A,][E,A,]/A,,/A,,/ [C,A,]/E,/A,,/E,,/ | %30
 [A,,,A,,]A,,/A,,/ [C,F,]A,,/[C,F,]F,/C,/A,,/ C,/A,,/E,,/A,,,/ | %31
 [G,,,G,,]/G,,,/G,,/G,,/ [D,G,]G,,/[D,G,]G,,/[D,G,]/F,,/ G,,/[D,G,]/G,,/G,,,/ | %32
 [C,,,C,,]C,,/C,,/ [G,,C,]C,,/C,[G,,C,]G,,/ [G,,C,E,]/[G,,C,]/[G,,C,]/[G,,C,]/!ped-up! |] %33

